;FLAVOR:Marlin
;TIME:1767
;Filament used: 2.77968m
;Layer height: 0.3
;MINX:73.7
;MINY:88.242
;MINZ:0.3
;MAXX:147.384
;MAXY:133.857
;MAXZ:20.4
;TARGET_MACHINE.NAME:Anycubic Kobra 2
;Generated with Cura_SteamEngine 5.10.1
G21 ;metric values
G90 ; use absolute coordinates
M82 ; use absolute distances for extrusion
M104 S205 ; set extruder temp
M140 S60 ; set bed temp
M190 S60 ; wait for bed temp
M109 S205 ; wait for extruder temp
G28 ; home all axes
M300 S1318 P266
G1 Z5 F5000 ; lift nozzle
G1 X5 Y0  F3000
G1 Z0.3 ; set nozzle height
G92 E0
G1 X50 Y0 E20 F500 ; Extrude 20mm of filament in a 5cm line 
G92 E0 ; zero the extruded length again 
G1 E-4.5 F4800 ; Retract a little 
G92 E0
G1 X120 F4000 ; Quickly wipe away from the filament line
M117 ; Printing…
G5
M82 ;absolute extrusion mode
G92 E0
G92 E0
G1 F4800 E-2
;LAYER_COUNT:68
;LAYER:0
M107
M204 S3000
M205 X10 Y10
G0 F7500 X77.177 Y90.978 Z0.3
M204 S2500
M205 X8 Y8
;TYPE:SKIRT
G1 F4800 E0
G1 F2700 X77.826 Y90.533 E0.03926
G1 X78.417 Y90.221 E0.0726
G1 X79.043 Y89.93 E0.10704
G1 X79.817 Y89.746 E0.14673
G1 X80.438 Y89.636 E0.1782
G1 X80.927 Y89.6 E0.20266
G1 X83.297 Y89.611 E0.3209
G1 X86.004 Y89.553 E0.45598
G1 X88.748 Y89.418 E0.59305
G1 X91.447 Y89.207 E0.72811
G1 X94.154 Y88.92 E0.86392
G1 X96.054 Y88.679 E0.95947
G1 X97.114 Y88.691 E1.01236
G1 X99.841 Y88.947 E1.14901
G1 X102.538 Y89.133 E1.28388
G1 X105.252 Y89.243 E1.4194
G1 X107.989 Y89.277 E1.55596
G1 X110.725 Y89.234 E1.69247
G1 X113.442 Y89.113 E1.82816
G1 X116.17 Y88.916 E1.96461
G1 X118.873 Y88.643 E2.10015
G1 X120.294 Y88.452 E2.17168
G1 X121.773 Y88.274 E2.246
G1 X122.361 Y88.242 E2.27538
G1 X123.396 Y88.349 E2.32729
G1 X124.541 Y88.484 E2.38481
G1 X127.232 Y88.723 E2.5196
G1 X129.967 Y88.889 E2.6563
G1 X132.684 Y88.976 E2.79192
G1 X135.417 Y88.987 E2.92827
G1 X138.156 Y88.92 E3.06496
G1 X141.152 Y88.758 E3.21465
G1 X141.748 Y88.718 E3.24445
G1 X142.316 Y88.729 E3.27279
G1 X142.849 Y88.82 E3.29977
G1 X143.781 Y89.056 E3.34774
G1 X144.439 Y89.306 E3.38285
G1 X144.94 Y89.591 E3.41161
G1 X145.892 Y90.362 E3.47273
G1 X146.357 Y90.841 E3.50603
G1 X146.68 Y91.298 E3.53395
G1 X146.887 Y91.69 E3.55607
G1 X147.162 Y92.372 E3.59276
G1 X147.334 Y93.41 E3.64525
G1 X147.384 Y94.105 E3.68001
G1 X147.155 Y95.655 E3.75818
G1 X146.798 Y98.341 E3.89336
G1 X146.513 Y101.081 E4.0308
G1 X146.307 Y103.81 E4.16734
G1 X146.179 Y106.519 E4.30264
G1 X146.127 Y109.224 E4.43762
G1 X146.153 Y111.971 E4.57467
G1 X146.283 Y115.215 E4.73665
G1 X146.364 Y116.807 E4.81618
G1 X146.181 Y118.755 E4.91379
G1 X146.049 Y119.8 E4.96634
G1 X145.778 Y120.729 E5.01462
G1 X145.271 Y122.349 E5.09931
G1 X145.058 Y122.871 E5.12743
G1 X144.66 Y123.634 E5.17037
G1 X144.21 Y124.468 E5.21765
G1 X143.683 Y125.398 E5.27098
G1 X142.432 Y126.926 E5.3695
G1 X141.763 Y127.701 E5.42058
G1 X140.956 Y128.385 E5.47336
G1 X139.381 Y129.643 E5.57392
G1 X138.528 Y130.115 E5.62256
G1 X137.561 Y130.626 E5.67712
G1 X136.65 Y131.086 E5.72804
G1 X135.727 Y131.381 E5.77638
G1 X133.712 Y131.973 E5.88116
G1 X131.671 Y132.181 E5.98351
G1 X130.715 Y132.26 E6.03137
G1 X129.698 Y132.183 E6.08225
G1 X128.638 Y132.078 E6.1354
G1 X126.997 Y131.894 E6.21778
G1 X125.899 Y131.756 E6.27299
G1 X123.173 Y131.49 E6.40964
G1 X120.476 Y131.303 E6.54451
G1 X117.762 Y131.193 E6.68003
G1 X115.025 Y131.159 E6.81659
G1 X112.289 Y131.202 E6.9531
G1 X109.572 Y131.323 E7.08879
G1 X106.844 Y131.52 E7.22524
G1 X104.121 Y131.796 E7.36179
G1 X101.421 Y132.146 E7.49762
G1 X98.78 Y132.565 E7.63103
G1 X94.925 Y133.31 E7.82691
G1 X94.229 Y133.458 E7.86241
G1 X93.434 Y133.585 E7.90258
G1 X92.367 Y133.737 E7.95635
G1 X91.35 Y133.857 E8.00744
G1 X90.407 Y133.821 E8.05452
G1 X89.336 Y133.764 E8.10803
G1 X88.374 Y133.698 E8.15614
G1 X87.363 Y133.464 E8.20791
G1 X86.277 Y133.187 E8.26382
G1 X85.314 Y132.917 E8.31372
G1 X84.468 Y132.532 E8.36009
G1 X82.574 Y131.613 E8.46512
G1 X81.763 Y131.03 E8.51495
G1 X80.884 Y130.379 E8.56952
G1 X80.099 Y129.772 E8.61903
G1 X79.425 Y129.053 E8.6682
G1 X78.124 Y127.601 E8.76546
G1 X75.797 Y124.153 E8.97299
G1 X75.465 Y123.424 E9.01296
G1 X75.202 Y122.772 E9.04803
G1 X75 Y122.069 E9.08453
G1 X74.698 Y120.756 E9.15174
G1 X74.556 Y120.074 E9.1865
G1 X74.199 Y118.205 E9.28143
G1 X73.939 Y116.626 E9.36126
G1 X73.784 Y115.373 E9.42425
G1 X73.7 Y114.476 E9.4692
G1 X73.726 Y113.269 E9.52943
G1 X73.783 Y112.737 E9.55613
G1 X73.999 Y111.413 E9.62305
G1 X74.401 Y108.702 E9.75978
G1 X74.722 Y106.024 E9.89435
G1 X74.972 Y103.287 E10.03146
G1 X75.142 Y100.565 E10.16753
G1 X75.236 Y97.843 E10.30341
G1 X75.256 Y95.786 E10.40604
G1 X75.256 Y94.616 E10.46441
G1 X75.306 Y94.051 E10.49271
G1 X75.444 Y93.498 E10.52115
G1 X75.704 Y92.891 E10.55409
G1 X76.394 Y91.821 E10.61761
G1 X76.81 Y91.315 E10.65029
G1 X77.177 Y90.978 E10.67515
M204 S3000
M205 X10 Y10
G0 F7500 X77.448 Y91.273
M204 S2500
M205 X8 Y8
G1 F2700 X78.051 Y90.864 E10.7115
G1 X78.586 Y90.584 E10.74163
G1 X79.177 Y90.309 E10.77415
G1 X79.887 Y90.14 E10.81056
G1 X80.508 Y90.03 E10.84202
G1 X80.925 Y90 E10.86288
G1 X83.304 Y90.011 E10.98157
G1 X86.024 Y89.953 E11.1173
G1 X88.768 Y89.818 E11.25437
G1 X91.484 Y89.606 E11.39028
G1 X94.203 Y89.317 E11.5267
G1 X96.05 Y89.079 E11.61961
G1 X97.077 Y89.089 E11.67085
G1 X99.813 Y89.346 E11.80795
G1 X102.522 Y89.533 E11.94342
G1 X105.236 Y89.643 E12.07893
G1 X107.99 Y89.677 E12.21634
G1 X110.743 Y89.634 E12.35371
G1 X113.46 Y89.513 E12.48939
G1 X116.203 Y89.315 E12.6266
G1 X118.913 Y89.041 E12.76249
G1 X120.342 Y88.849 E12.83442
G1 X121.798 Y88.673 E12.90759
G1 X122.32 Y88.64 E12.93369
G1 X123.349 Y88.746 E12.98529
G1 X124.494 Y88.881 E13.04281
G1 X127.208 Y89.122 E13.17875
G1 X129.954 Y89.289 E13.316
G1 X132.671 Y89.376 E13.45162
G1 X135.425 Y89.387 E13.58902
G1 X138.166 Y89.32 E13.72581
G1 X141.18 Y89.157 E13.8764
G1 X141.744 Y89.118 E13.9046
G1 X142.249 Y89.123 E13.9298
G1 X142.751 Y89.208 E13.9552
G1 X143.683 Y89.444 E14.00317
G1 X144.241 Y89.654 E14.03291
G1 X144.742 Y89.939 E14.06167
G1 X145.607 Y90.643 E14.11731
G1 X146.032 Y91.074 E14.14751
G1 X146.326 Y91.485 E14.17272
G1 X146.533 Y91.877 E14.19484
G1 X146.774 Y92.479 E14.22719
G1 X146.939 Y93.475 E14.27755
G1 X146.982 Y94.089 E14.30826
G1 X146.76 Y95.597 E14.38431
G1 X146.4 Y98.3 E14.52035
G1 X146.115 Y101.04 E14.65779
G1 X145.908 Y103.78 E14.79488
G1 X145.779 Y106.5 E14.93073
G1 X145.727 Y109.216 E15.06626
G1 X145.753 Y111.987 E15.20451
G1 X145.884 Y115.231 E15.36648
G1 X145.966 Y116.77 E15.44337
G1 X145.784 Y118.707 E15.54044
G1 X145.665 Y119.688 E15.58974
G1 X145.396 Y120.61 E15.63766
G1 X144.889 Y122.23 E15.72234
G1 X144.703 Y122.686 E15.74691
G1 X144.308 Y123.444 E15.78956
G1 X143.861 Y124.273 E15.83654
G1 X143.373 Y125.145 E15.8864
G1 X142.129 Y126.665 E15.98439
G1 X141.46 Y127.44 E16.03547
G1 X140.706 Y128.073 E16.08458
G1 X139.187 Y129.293 E16.18178
G1 X138.341 Y129.761 E16.23002
G1 X137.379 Y130.27 E16.28432
G1 X136.528 Y130.705 E16.332
G1 X135.614 Y130.997 E16.37987
G1 X133.633 Y131.579 E16.48288
G1 X131.638 Y131.782 E16.58292
G1 X130.682 Y131.861 E16.63078
G1 X129.737 Y131.785 E16.67808
G1 X128.683 Y131.681 E16.73092
G1 X127.047 Y131.497 E16.81305
G1 X125.949 Y131.359 E16.86826
G1 X123.204 Y131.091 E17.00586
G1 X120.492 Y130.903 E17.14149
G1 X117.778 Y130.793 E17.277
G1 X115.024 Y130.759 E17.41441
G1 X112.271 Y130.802 E17.55178
G1 X109.554 Y130.923 E17.68746
G1 X106.811 Y131.121 E17.82467
G1 X104.07 Y131.399 E17.96212
G1 X101.37 Y131.749 E18.09795
G1 X98.704 Y132.172 E18.23262
G1 X94.849 Y132.917 E18.42851
G1 X94.166 Y133.063 E18.46335
G1 X93.378 Y133.189 E18.50316
G1 X92.318 Y133.34 E18.55658
G1 X91.365 Y133.457 E18.60448
G1 X90.428 Y133.422 E18.65126
G1 X89.363 Y133.365 E18.70447
G1 X88.401 Y133.299 E18.75258
G1 X87.462 Y133.076 E18.80073
G1 X86.383 Y132.801 E18.85628
G1 X85.48 Y132.553 E18.903
G1 X84.642 Y132.172 E18.94893
G1 X82.807 Y131.288 E19.05054
G1 X82.001 Y130.709 E19.10006
G1 X81.127 Y130.061 E19.15434
G1 X80.391 Y129.498 E19.20057
G1 X79.723 Y128.786 E19.24928
G1 X78.422 Y127.334 E19.34654
G1 X76.161 Y123.987 E19.54805
G1 X75.835 Y123.273 E19.58721
G1 X75.586 Y122.662 E19.62013
G1 X75.39 Y121.979 E19.65558
G1 X75.09 Y120.674 E19.72239
G1 X74.949 Y119.999 E19.75679
G1 X74.594 Y118.14 E19.85121
G1 X74.336 Y116.577 E19.93024
G1 X74.182 Y115.335 E19.99268
G1 X74.1 Y114.484 E20.03533
G1 X74.124 Y113.311 E20.09387
G1 X74.178 Y112.801 E20.11945
G1 X74.394 Y111.477 E20.18638
G1 X74.797 Y108.761 E20.32337
G1 X75.119 Y106.072 E20.45848
G1 X75.37 Y103.323 E20.5962
G1 X75.542 Y100.579 E20.73337
G1 X75.636 Y97.857 E20.86925
G1 X75.656 Y95.79 E20.97238
G1 X75.655 Y94.648 E21.02935
G1 X75.695 Y94.144 E21.05458
G1 X75.813 Y93.652 E21.07982
G1 X76.04 Y93.107 E21.10927
G1 X76.705 Y92.073 E21.17061
G1 X77.081 Y91.61 E21.20036
G1 X77.448 Y91.273 E21.22522
M204 S3000
M205 X10 Y10
G1 F4800 E19.22522
;MESH:cork_puppy_rev2.stl
G0 F7500 X84.259 Y108.916
M204 S2500
M205 X8 Y8
;TYPE:WALL-INNER
G1 F4800 E21.22522
G1 F1648.9 X83.707 Y109.243 E21.27764
G1 F1791 X82.083 Y110.706 E21.44203
G1 F1942.4 X80.766 Y112.47 E21.59469
G1 F2084.9 X79.828 Y114.454 E21.73648
G1 F2213.1 X79.298 Y116.588 E21.87031
G1 F2293 X79.195 Y118.759 E21.99799
G1 F2332.6 X79.525 Y120.96 E22.12651
G1 F2327.6 X80.287 Y123.058 E22.25569
G1 F2278.5 X81.419 Y124.934 E22.38523
G1 F2164.3 X82.926 Y126.586 E22.5244
G1 F2033.9 X84.689 Y127.893 E22.66975
G1 F1868.5 X86.713 Y128.848 E22.83109
G1 F1736.3 X88.742 Y129.359 E22.99341
G1 F1677 X88.869 Y129.377 E23.00371
M204 S3000
M205 X10 Y10
G1 F4800 E21.00371
G0 F7500 X90.984 Y129.326
M204 S2500
M205 X8 Y8
G1 F4800 E23.00371
G1 F3050.8 X89.276 Y129.242 E23.07922
G1 F2177.4 X88.869 Y129.377 E23.10575
G1 X89.259 Y129.581 E23.13297
G1 F3103.4 X91.153 Y129.679 E23.21529
G1 F2934.8 X93.354 Y129.366 E23.31733
G1 F2700 X95.481 Y128.616 E23.42985
G1 F2511.6 X97.406 Y127.474 E23.54989
G1 F2358.1 X99.06 Y125.981 E23.67718
G1 F2222.2 X100.391 Y124.198 E23.81205
G1 F2130.2 X101.348 Y122.174 E23.95362
G1 F2057.1 X101.888 Y119.979 E24.10164
G1 F2011.2 X101.987 Y117.751 E24.25101
G1 F1996.3 X101.654 Y115.558 E24.40069
G1 F2000 X100.9 Y113.469 E24.55027
G1 F2014.9 X99.742 Y111.537 E24.70085
G1 F2065 X98.212 Y109.851 E24.84937
G1 F2151.4 X96.406 Y108.51 E24.99021
G1 F2240.7 X94.367 Y107.539 E25.12598
G1 F2363.2 X92.185 Y106.984 E25.25431
G1 F2547.2 X89.94 Y106.862 E25.37321
G1 F2762.1 X87.708 Y107.18 E25.48316
G1 F2942.8 X85.612 Y107.917 E25.58486
G1 F3103.4 X84.516 Y108.566 E25.64014
G1 F2109.4 X84.259 Y108.916 E25.66787
G1 X84.689 Y108.86 E25.69557
G1 F3085.7 X85.626 Y108.305 E25.74311
G1 F2903.2 X87.657 Y107.591 E25.84299
G1 F2673.3 X89.808 Y107.286 E25.95246
G1 F2494.2 X91.981 Y107.404 E26.06999
G1 F2358.1 X94.084 Y107.938 E26.19394
G1 F2259.4 X96.024 Y108.859 E26.32197
G1 F2160 X97.802 Y110.172 E26.45981
G1 F2076.9 X99.262 Y111.777 E26.60053
G1 F2041.6 X100.392 Y113.644 E26.74452
G1 F2011.2 X101.128 Y115.689 E26.89009
G1 F1996.3 X101.448 Y117.794 E27.03376
G1 F2030.1 X101.352 Y119.987 E27.17941
G1 F2084.9 X100.823 Y122.098 E27.32002
G1 F2134.4 X99.909 Y124.028 E27.45479
G1 F2222.2 X98.615 Y125.763 E27.58599
G1 F2337.7 X97.037 Y127.184 E27.70835
G1 F2454.5 X95.152 Y128.307 E27.82877
G1 F2634.1 X93.129 Y129.016 E27.93839
G1 F2834.6 X90.984 Y129.326 E28.04138
M204 S3000
M205 X10 Y10
G0 F7500 X90.876 Y128.951
M204 S2500
M205 X8 Y8
;TYPE:WALL-OUTER
G1 F2700 X88.78 Y128.844 E28.14608
G1 X86.75 Y128.329 E28.25057
G1 X84.85 Y127.431 E28.35541
G1 X83.139 Y126.163 E28.46166
G1 X81.724 Y124.6 E28.56685
G1 X80.662 Y122.841 E28.66936
G1 X79.938 Y120.839 E28.77557
G1 X79.628 Y118.774 E28.87975
G1 X79.729 Y116.687 E28.98399
G1 X80.221 Y114.711 E29.08558
G1 X81.127 Y112.796 E29.19128
G1 X82.351 Y111.156 E29.29337
G1 X83.926 Y109.739 E29.39907
G1 X85.737 Y108.675 E29.50386
G1 X87.657 Y107.999 E29.60541
G1 X89.728 Y107.701 E29.7098
G1 X91.866 Y107.818 E29.81663
G1 X93.894 Y108.335 E29.92104
G1 X95.788 Y109.239 E30.02574
G1 X97.444 Y110.467 E30.1286
G1 X98.884 Y112.052 E30.23544
G1 X99.965 Y113.844 E30.33985
G1 X100.671 Y115.8 E30.44359
G1 X100.98 Y117.846 E30.54683
G1 X100.888 Y119.926 E30.6507
G1 X100.391 Y121.941 E30.75424
G1 X99.481 Y123.86 E30.8602
G1 X98.258 Y125.5 E30.96227
G1 X96.682 Y126.917 E31.068
G1 X94.918 Y127.959 E31.17021
G1 X92.946 Y128.655 E31.27455
G1 X90.876 Y128.951 E31.37887
M204 S3000
M205 X10 Y10
G0 F7500 X90.677 Y128.941
G1 F4800 E29.37887
G0 F7500 X91.223 Y130.059
M204 S2500
M205 X8 Y8
G1 F4800 E31.37887
G1 F2700 X93.536 Y129.728 E31.49544
G1 X95.711 Y128.965 E31.61043
G1 X97.716 Y127.774 E31.72678
G1 X99.423 Y126.236 E31.84141
G1 X100.807 Y124.38 E31.95692
G1 X101.794 Y122.292 E32.07214
G1 X102.353 Y120.047 E32.18756
G1 X102.459 Y117.727 E32.30343
G1 X102.113 Y115.442 E32.41873
G1 X101.326 Y113.267 E32.53413
G1 X100.118 Y111.257 E32.65112
G1 X98.557 Y109.546 E32.76667
G1 X96.684 Y108.153 E32.88313
G1 X94.575 Y107.149 E32.99966
G1 X92.317 Y106.575 E33.11589
G1 X89.997 Y106.449 E33.23181
G1 X87.684 Y106.78 E33.34838
G1 X85.514 Y107.543 E33.46314
G1 X83.508 Y108.735 E33.57956
G1 X81.801 Y110.272 E33.69415
G1 X80.417 Y112.128 E33.80966
G1 X79.43 Y114.216 E33.92488
G1 X78.872 Y116.466 E34.04054
G1 X78.761 Y118.781 E34.15617
G1 X79.107 Y121.066 E34.27146
G1 X79.894 Y123.245 E34.38705
G1 X81.106 Y125.252 E34.50402
G1 X82.663 Y126.966 E34.61954
G1 X84.54 Y128.359 E34.73616
G1 X86.645 Y129.358 E34.85241
G1 X88.907 Y129.933 E34.96885
G1 X91.223 Y130.059 E35.08456
M204 S3000
M205 X10 Y10
G0 F7500 X91.42 Y130.031
G1 F4800 E33.08456
G0 F7500 X130.594 Y127.669
M204 S2500
M205 X8 Y8
;TYPE:WALL-INNER
G1 F4800 E35.08456
G1 F2819.8 X128.431 Y127.461 E35.18837
G1 F2895.4 X126.356 Y126.836 E35.28918
G1 F2950.8 X124.443 Y125.825 E35.38796
G1 F2975.2 X122.759 Y124.451 E35.48636
G1 F3000 X121.378 Y122.779 E35.58373
G1 F3033.7 X120.348 Y120.873 E35.67993
G1 F3068.2 X119.715 Y118.804 E35.77492
G1 F3112.4 X119.497 Y116.642 E35.86897
G1 F3167.2 X119.704 Y114.486 E35.96109
G1 F3243.2 X120.329 Y112.413 E36.05101
G1 F3333.3 X121.351 Y110.497 E36.13877
G1 F3439.5 X122.741 Y108.804 E36.22455
G1 F3495.1 X124.425 Y107.424 E36.30847
G1 F3506.5 X126.365 Y106.396 E36.39281
G1 F3483.9 X128.414 Y105.776 E36.47558
G1 F3439.5 X130.58 Y105.565 E36.56081
G1 F3302.8 X132.746 Y105.777 E36.64957
G1 F3157.9 X134.798 Y106.399 E36.74104
G1 F2958.9 X136.737 Y107.426 E36.84093
G1 F2755.1 X138.414 Y108.801 E36.94696
G1 F2608.7 X139.796 Y110.48 E37.05924
G1 F2494.2 X140.817 Y112.396 E37.1765
G1 F2421.5 X141.446 Y114.459 E37.29647
G1 F2347.8 X141.659 Y116.648 E37.42265
G1 F2288.1 X141.443 Y118.788 E37.54928
G1 X140.822 Y120.836 E37.67527
G1 F2332.6 X139.795 Y122.76 E37.80121
G1 F2410.7 X138.415 Y124.437 E37.92256
G1 F2505.8 X136.717 Y125.824 E38.04042
G1 F2571.4 X134.83 Y126.824 E38.1523
G1 F2647.1 X132.754 Y127.455 E38.26271
G1 F2741.1 X130.594 Y127.669 E38.36938
M204 S3000
M205 X10 Y10
G0 F7500 X130.672 Y128.06
M204 S2500
M205 X8 Y8
G1 F2686.6 X132.918 Y127.832 E38.48257
G1 F2596.2 X135.066 Y127.18 E38.59904
G1 F2500 X137.056 Y126.117 E38.72061
G1 F2416.1 X138.78 Y124.704 E38.84488
G1 F2358.1 X140.205 Y122.974 E38.97292
G1 F2317.6 X141.259 Y121.01 E39.10247
G1 F2288.1 X141.907 Y118.885 E39.23325
G1 X142.129 Y116.672 E39.36419
G1 F2307.7 X141.913 Y114.453 E39.49433
G1 F2389.4 X141.259 Y112.291 E39.62167
G1 F2511.6 X140.199 Y110.321 E39.74164
G1 F2647.1 X138.764 Y108.586 E39.85622
G1 F2819.8 X137.03 Y107.169 E39.96319
G1 F2991.7 X135.043 Y106.113 E40.06451
G1 F3139.5 X132.886 Y105.463 E40.16117
G1 F3272.7 X130.672 Y105.247 E40.25273
G1 F3375 X128.425 Y105.461 E40.34282
G1 F3472.7 X126.26 Y106.107 E40.43045
G1 F3506.5 X124.256 Y107.168 E40.51756
G1 F3495.1 X122.521 Y108.584 E40.60387
G1 F3439.5 X121.083 Y110.327 E40.69237
G1 F3333.3 X120.019 Y112.303 E40.78306
G1 F3253 X119.372 Y114.441 E40.87556
G1 F3167.2 X119.153 Y116.672 E40.9709
G1 F3103.4 X119.379 Y118.9 E41.0681
G1 F3068.2 X120.034 Y121.035 E41.16615
G1 F3033.7 X121.098 Y123.002 E41.26545
G1 F3000 X122.536 Y124.737 E41.36663
G1 F2967 X124.272 Y126.147 E41.46817
G1 F2934.8 X126.272 Y127.202 E41.57195
G1 F2864.7 X128.427 Y127.846 E41.67771
G1 F2783.5 X130.672 Y128.06 E41.78685
M204 S3000
M205 X10 Y10
