; generated by AnycubicSlicer 1.4.4 on 2025-06-17 at 07:13:54 UTC


;
;
; 

; external perimeters extrusion width = 0.42mm
; perimeters extrusion width = 0.45mm
; infill extrusion width = 0.45mm
; solid infill extrusion width = 0.42mm
; top infill extrusion width = 0.42mm
; support material extrusion width = 0.42mm
; first layer extrusion width = 0.50mm

; external perimeters extrusion width = 0.42mm
; perimeters extrusion width = 0.45mm
; infill extrusion width = 0.45mm
; solid infill extrusion width = 0.42mm
; top infill extrusion width = 0.42mm
; support material extrusion width = 0.42mm
; first layer extrusion width = 0.50mm

; external perimeters extrusion width = 0.42mm
; perimeters extrusion width = 0.45mm
; infill extrusion width = 0.45mm
; solid infill extrusion width = 0.42mm
; top infill extrusion width = 0.42mm
; support material extrusion width = 0.42mm
; first layer extrusion width = 0.50mm

; external perimeters extrusion width = 0.42mm
; perimeters extrusion width = 0.45mm
; infill extrusion width = 0.45mm
; solid infill extrusion width = 0.42mm
; top infill extrusion width = 0.42mm
; support material extrusion width = 0.42mm
; first layer extrusion width = 0.50mm

;TYPE:Custom
G9111 bedTemp=65 extruderTemp=230
M117
M900 K0.05
G21 ; set units to millimeters
G90 ; use absolute coordinates
M83 ; use relative distances for extrusion
G1 Z.24 F21000
;HEIGHT:0.24
;TYPE:Wipe tower
;WIDTH:0.5
;--------------------
; CP PRIMING START
;--------------------
M220 S100 ; {set feedrate percentage (aka feedrate)}
G1 X5.000 Y0.260 F7200
T2 ;{select tool}

G1 F21000
G1 X5.000 Y0.260
G4 S0 ;{dwell for 0 sec (?)}
; CP TOOLCHANGE WIPE
G1 X65.000 E2.6851 F1584
G1 X64.250 Y1.260 E0.0559
G1 X5.000 E2.6515 F1800
G1 X5.750 Y2.260 E0.0559
G1 X64.250 E2.6179 F2198
G1 Y3.260 E0.0448
G1 X5.750 E2.6179 F4200
G1 X64.250 F7200
; CP TOOLCHANGE UNLOAD
;WIDTH:0.5
SET_PRESSURE_ADVANCE ADVANCE=0
;WIDTH:0.5
G4 S0 ; {dwell for 0 sec}
G1 X65.000 Y0.260

;HEIGHT:0.24
;TYPE:Wipe tower
;WIDTH:0.5
;WIPE_START
G1 F16800;_WIPE
G1 X66.454 Y3.645 E-1 ; {retraction?}
;WIPE_END
T1 ; {select tool}

G1 X65.000 Y0.260 F21000
G1 X65.000 Y0.260
G4 S0 ; {dwell for 0 sec}
; CP TOOLCHANGE WIPE
G1 X125.000 E2.6851 F1584
G1 X124.250 Y1.260 E0.0559
G1 X65.000 E2.6515 F1800
G1 X65.750 Y2.260 E0.0559
G1 X124.250 E2.6179 F2198
G1 Y3.260 E0.0448
G1 X65.750 E2.6179 F4200
G1 Y4.260 E0.0448
G1 X125.000 E2.6515 F4250
G1 X124.250 Y5.260 E0.0559
G1 X65.000 E2.6515 F4300
G1 X65.750 Y6.260 E0.0559
G1 X124.250 E2.6179 F4350
G1 Y7.260 E0.0448
G1 X65.750 E2.6179 F4400
G1 Y8.260 E0.0448
G1 X125.000 E2.6515 F4450
G1 X65.750 F7200
G1 F21000
G4 S0 ; {another dwell}
G92 E0 ; {set home I think}
; CP PRIMING END
;------------------



M107
;LAYER_CHANGE
;Z:0.24
;HEIGHT:0.24
; BEFORE_LAYER_CHANGE 0 @ 0.24mm
G92 E0
;WIPE_START
G1 F16800
G1 X66.965 Y10.945 E-.8
;WIPE_END
G1 Z.24 F21000
; AFTER_LAYER_CHANGE 0 @ 0.24mm
M204 S10000
G1 X163.032 Y146.943
G1 E.8 F4800
;HEIGHT:0.24
;TYPE:Wipe tower
;WIDTH:0.5
G1 X197.032 Y146.943 E1.5215 F3600
G1 Y160.943 E0.6265
G1 X163.032 E1.5215
G1 Y146.943 E0.6265
G1 X197.032
G1 Y160.943
G1 X196.032
;--------------------
; CP EMPTY GRID START
; layer #1
G1 Y160.443 E0.0224
G1 X163.532 E1.4544
G1 Y159.943 E0.0224
G1 X196.532 E1.4768
G1 Y159.443 E0.0224
G1 X163.532 E1.4768
G1 Y158.943 E0.0224
G1 X196.532 E1.4768
G1 Y158.443 E0.0224
G1 X163.532 E1.4768
G1 Y157.943 E0.0224
G1 X196.532 E1.4768
G1 Y157.443 E0.0224
G1 X163.532 E1.4768
G1 Y156.943 E0.0224
G1 X196.532 E1.4768
G1 Y156.443 E0.0224
G1 X163.532 E1.4768
G1 Y155.943 E0.0224
G1 X196.532 E1.4768
G1 Y155.443 E0.0224
G1 X163.532 E1.4768
G1 Y154.943 E0.0224
G1 X196.532 E1.4768
G1 Y154.443 E0.0224
G1 X163.532 E1.4768
G1 Y153.943 E0.0224
G1 X196.532 E1.4768
G1 Y153.443 E0.0224
G1 X163.532 E1.4768
G1 Y152.943 E0.0224
G1 X196.532 E1.4768
G1 Y152.443 E0.0224
G1 X163.532 E1.4768
G1 Y151.943 E0.0224
G1 X196.532 E1.4768
G1 Y151.443 E0.0224
G1 X163.532 E1.4768
G1 Y150.943 E0.0224
G1 X196.532 E1.4768
G1 Y150.443 E0.0224
G1 X163.532 E1.4768
G1 Y149.943 E0.0224
G1 X196.532 E1.4768
G1 Y149.443 E0.0224
G1 X163.532 E1.4768
G1 Y148.943 E0.0224
G1 X196.532 E1.4768
G1 Y148.443 E0.0224
G1 X163.532 E1.4768
G1 Y147.943 E0.0224
G1 X196.532 E1.4768
G1 Y147.443 E0.0224
G1 X163.532 E1.4768
G1 Y146.943 E0.0224
; CP EMPTY GRID END
;------------------






G1 X162.532 Y146.443
G1 X197.532 E1.5663
G1 Y161.443 E0.6713
G1 X162.532 E1.5663
G1 Y146.443 E0.6713
G1 X162.084 Y145.995
G1 X197.980 E1.6064
G1 Y161.891 E0.7114
G1 X162.084 E1.6064
G1 Y145.995 E0.7114
G1 X161.635 Y145.546
G1 X198.429 E1.6466
G1 Y162.340 E0.7515
G1 X161.635 E1.6466
G1 Y145.546 E0.7515
G1 X161.187 Y145.098
G1 X198.877 E1.6867
G1 Y162.788 E0.7917
G1 X161.187 E1.6867
G1 Y145.098 E0.7917
G1 X160.738 Y144.649
G1 X199.326 E1.7269
G1 Y163.237 E0.8318
G1 X160.738 Y163.237 E1.7269
G1 Y144.649 E0.8318
G1 X160.290 Y144.201
G1 X199.774 E1.7670
G1 Y163.685 E0.8720
G1 X160.290 Y163.685 E1.7670
G1 Y144.201 E0.8720
G1 X159.841 Y143.752
G1 X200.223 Y143.752 E1.8071
G1 Y164.134 E0.9121
G1 X159.841 E1.8071
G1 Y143.752 E0.9121
G1 X159.393 Y143.304
G1 X200.671 Y143.304 E1.8473
G1 X200.671 Y164.582 E0.9523
G1 X159.393 Y164.582 E1.8473
G1 Y143.304 E0.9523
G1 X158.944 Y142.855
G1 X201.120 E1.8874
G1 Y165.031 E0.9924
G1 X158.944 E1.8874
G1 Y142.855 E0.9924
G1 X158.496 Y142.407
G1 X201.568 E1.9276
G1 Y165.479 E1.0325
G1 X158.496 E1.9276
G1 Y142.407 E1.0325
G1 X158.047 Y141.958
G1 X202.017 E1.9677
G1 Y165.928 E1.0727
G1 X158.047 E1.9677
G1 Y141.958 E1.0727
G1 X157.599 Y141.510
G1 X202.465 E2.0078
G1 Y166.376 E1.1128
G1 X157.599 E2.0078
G1 Y141.510 E1.1128
; WIPE_TOWER_END

;WIPE_START
G1 F16800
G1 X157.598 Y144.457 E-.8
;WIPE_END
G1 X126.51 Y115.958 F21000
G1 E.8 F4800
M204 S5000
;TYPE:External perimeter
;WIDTH:0.5
;HEIGHT:0.24
G1 F3600
G1 X126.803 Y117.334 E.05792
G1 X126.901 Y118.742 E.05811
G1 X126.804 Y120.135 E.05749
G1 X126.51 Y121.523 E.05841
G1 X126.028 Y122.847 E.05801
G1 X125.365 Y124.093 E.05811
G1 X124.538 Y125.231 E.05792
G1 X123.557 Y126.247 E.05815
G1 X122.45 Y127.111 E.05781
G1 X121.229 Y127.816 E.05805
G1 X119.922 Y128.345 E.05805
G1 X118.556 Y128.685 E.05796
G1 X117.153 Y128.832 E.05808
G1 X115.749 Y128.784 E.05784
G1 X114.359 Y128.539 E.05811
G1 X113.019 Y128.103 E.05802
G1 X111.75 Y127.484 E.05813
G1 X110.584 Y126.698 E.05789
G1 X109.528 Y125.745 E.05856
G1 X108.633 Y124.678 E.05734
G1 X107.885 Y123.481 E.05811
G1 X107.312 Y122.194 E.058
G1 X106.923 Y120.839 E.05804
G1 X106.726 Y119.437 E.05829
G1 X106.703 Y118.72 E.02953
G1 X106.727 Y118.039 E.02805
G1 X106.923 Y116.64 E.05816
G1 X107.312 Y115.285 E.05804
G1 X107.886 Y113.997 E.05806
G1 X108.632 Y112.803 E.05796
G1 X109.538 Y111.723 E.05804
G1 X110.58 Y110.784 E.05775
G1 X111.752 Y109.993 E.05821
G1 X113.019 Y109.376 E.05802
G1 X114.362 Y108.939 E.05815
G1 X115.746 Y108.696 E.05785
G1 X117.163 Y108.647 E.05837
G1 X118.554 Y108.793 E.05758
G1 X119.923 Y109.135 E.0581
G1 X121.229 Y109.663 E.058
G1 X122.449 Y110.367 E.05799
G1 X123.559 Y111.234 E.05799
G1 X124.538 Y112.248 E.05803
G1 X125.366 Y113.388 E.05801
G1 X126.028 Y114.632 E.05802
G1 X126.49 Y115.902 E.05564
M204 S15000
G1 X126.233 Y116.246 F21000
M204 S10000
G1 X126.078 Y116.082
M204 S5000
;TYPE:Perimeter
G1 F3600
G1 X126.357 Y117.396 E.0553
G1 X126.451 Y118.742 E.05555
G1 X126.359 Y120.073 E.05493
G1 X126.077 Y121.399 E.05581
G1 X125.617 Y122.664 E.05542
G1 X124.984 Y123.855 E.05553
G1 X124.194 Y124.942 E.05532
G1 X123.256 Y125.913 E.05558
G1 X122.199 Y126.739 E.05523
G1 X121.032 Y127.412 E.05546
G1 X119.783 Y127.917 E.05547
G1 X118.477 Y128.242 E.05541
G1 X117.138 Y128.383 E.05543
G1 X115.796 Y128.337 E.05528
G1 X114.467 Y128.102 E.05557
G1 X113.187 Y127.686 E.05541
G1 X111.974 Y127.095 E.05555
G1 X110.861 Y126.344 E.05528
G1 X109.852 Y125.433 E.05597
G1 X108.997 Y124.413 E.0548
G1 X108.282 Y123.27 E.05551
G1 X107.734 Y122.04 E.05544
G1 X107.363 Y120.745 E.05546
G1 X107.174 Y119.399 E.05596
G1 X107.152 Y118.721 E.02793
G1 X107.174 Y118.078 E.02649
G1 X107.363 Y116.734 E.05588
G1 X107.734 Y115.439 E.05546
G1 X108.283 Y114.208 E.05549
G1 X108.995 Y113.068 E.05534
G1 X109.862 Y112.035 E.05552
G1 X110.857 Y111.139 E.05513
G1 X111.977 Y110.383 E.05563
G1 X113.187 Y109.793 E.05542
G1 X114.471 Y109.376 E.05558
G1 X115.793 Y109.143 E.05527
G1 X117.147 Y109.096 E.05578
G1 X118.476 Y109.236 E.05502
G1 X119.784 Y109.562 E.0555
G1 X121.032 Y110.067 E.05543
G1 X122.198 Y110.74 E.05543
G1 X123.259 Y111.569 E.05544
G1 X124.194 Y112.537 E.05541
G1 X124.985 Y113.626 E.05541
G1 X125.617 Y114.815 E.05544
G1 X126.058 Y116.026 E.05306
M204 S15000
;WIPE_START
G1 F16800
G1 X126.357 Y117.396 E-.38061
G1 X126.451 Y118.742 E-.36623
G1 X126.437 Y118.937 E-.05316
;WIPE_END
M204 S10000
G1 X121.955 Y110.807 F21000
G1 E.8 F4800
M204 S5000
;TYPE:Solid infill
;WIDTH:0.503154
G1 F3600
G1 X124.734 Y113.585 E.16291
M204 S15000
;WIPE_START
G1 F16800
G1 X122.65 Y111.501 E-.8
;WIPE_END
M204 S10000
G1 X125.484 Y114.975 F21000
G1 E.8 F4800
M204 S5000
G1 F3600
G1 X120.592 Y110.082 E.28687
M204 S15000
;WIPE_START
G1 F16800
G1 X122.676 Y112.166 E-.8
;WIPE_END
M204 S10000
G1 X119.563 Y109.692 F21000
G1 E.8 F4800
M204 S5000
G1 F3600
G1 X125.85 Y115.979 E.36863
M204 S15000
M204 S10000
G1 X126.051 Y116.819 F21000
M204 S5000
G1 F3600
G1 X118.712 Y109.48 E.43032
M204 S15000
M204 S10000
G1 X117.955 Y109.362 F21000
M204 S5000
G1 F3600
G1 X126.192 Y117.598 E.48294
M204 S15000
M204 S10000
G1 X126.24 Y118.285 F21000
M204 S5000
G1 F3600
G1 X117.241 Y109.286 E.52765
M204 S15000
M204 S10000
G1 X116.61 Y109.294 F21000
M204 S5000
G1 F3600
G1 X126.258 Y118.942 E.5657
M204 S15000
M204 S10000
G1 X126.216 Y119.539 F21000
M204 S5000
G1 F3600
G1 X115.993 Y109.316 E.59942
M204 S15000
M204 S10000
G1 X115.428 Y109.389 F21000
M204 S5000
G1 F3600
G1 X126.164 Y120.126 E.62952
M204 S15000
M204 S10000
G1 X126.052 Y120.653 F21000
M204 S5000
G1 F3600
G1 X114.885 Y109.485 E.6548
M204 S15000
M204 S10000
G1 X114.361 Y109.6 F21000
M204 S5000
G1 F3600
G1 X125.941 Y121.18 E.67898
M204 S15000
M204 S10000
G1 X125.789 Y121.667 F21000
M204 S5000
G1 F3600
G1 X113.879 Y109.757 E.69833
M204 S15000
M204 S10000
G1 X113.397 Y109.913 F21000
M204 S5000
G1 F3600
G1 X125.619 Y122.135 E.71663
M204 S15000
M204 S10000
G1 X125.447 Y122.602 F21000
M204 S5000
G1 F3600
G1 X112.952 Y110.107 E.73263
M204 S15000
M204 S10000
G1 X112.523 Y110.316 F21000
M204 S5000
G1 F3600
G1 X125.225 Y123.019 E.7448
M204 S15000
M204 S10000
G1 X125.003 Y123.436 F21000
M204 S5000
G1 F3600
G1 X112.093 Y110.526 E.75697
M204 S15000
M204 S10000
G1 X111.709 Y110.78 F21000
M204 S5000
G1 F3600
G1 X124.771 Y123.843 E.76591
M204 S15000
M204 S10000
G1 X124.502 Y124.212 F21000
M204 S5000
G1 F3600
G1 X111.327 Y111.038 E.77247
M204 S15000
M204 S10000
G1 X110.949 Y111.297 F21000
M204 S5000
G1 F3600
G1 X124.233 Y124.582 E.77892
M204 S15000
M204 S10000
G1 X123.949 Y124.937 F21000
M204 S5000
G1 F3600
G1 X110.613 Y111.6 E.78197
M204 S15000
M204 S10000
G1 X110.277 Y111.903 F21000
M204 S5000
G1 F3600
G1 X123.636 Y125.262 E.78329
M204 S15000
M204 S10000
G1 X123.322 Y125.587 F21000
M204 S5000
G1 F3600
G1 X109.947 Y112.212 E.78423
M204 S15000
M204 S10000
G1 X109.656 Y112.56 F21000
M204 S5000
G1 F3600
G1 X122.99 Y125.893 E.7818
M204 S15000
M204 S10000
G1 X122.631 Y126.173 F21000
M204 S5000
G1 F3600
G1 X109.364 Y112.907 E.77787
M204 S15000
M204 S10000
G1 X109.084 Y113.265 F21000
M204 S5000
G1 F3600
G1 X122.272 Y126.454 E.7733
M204 S15000
M204 S10000
G1 X121.89 Y126.71 F21000
M204 S5000
G1 F3600
G1 X108.838 Y113.658 E.76529
M204 S15000
M204 S10000
G1 X108.592 Y114.051 F21000
M204 S5000
G1 F3600
G1 X121.485 Y126.944 E.75597
M204 S15000
M204 S10000
G1 X121.08 Y127.177 F21000
M204 S5000
G1 F3600
G1 X108.365 Y114.463 E.7455
M204 S15000
M204 S10000
G1 X108.169 Y114.905 F21000
M204 S5000
G1 F3600
G1 X120.641 Y127.377 E.73128
M204 S15000
M204 S10000
G1 X120.186 Y127.561 F21000
M204 S5000
G1 F3600
G1 X107.972 Y115.347 E.71616
M204 S15000
M204 S10000
G1 X107.811 Y115.824 F21000
M204 S5000
G1 F3600
G1 X119.731 Y127.744 E.69892
M204 S15000
M204 S10000
G1 X119.22 Y127.872 F21000
M204 S5000
G1 F3600
G1 X107.668 Y116.321 E.67731
M204 S15000
M204 S10000
G1 X107.532 Y116.823 F21000
M204 S5000
G1 F3600
G1 X118.709 Y128 E.65535
M204 S15000
M204 S10000
G1 X118.165 Y128.095 F21000
M204 S5000
G1 F3600
G1 X107.453 Y117.383 E.62809
M204 S15000
M204 S10000
G1 X107.374 Y117.943 F21000
M204 S5000
G1 F3600
G1 X117.587 Y128.156 E.59883
M204 S15000
M204 S10000
G1 X116.991 Y128.199 F21000
M204 S5000
G1 F3600
G1 X107.337 Y118.544 E.56608
M204 S15000
M204 S10000
G1 X107.347 Y119.193 F21000
M204 S5000
G1 F3600
G1 X116.33 Y128.176 E.52671
M204 S15000
M204 S10000
G1 X115.643 Y128.127 F21000
M204 S5000
G1 F3600
G1 X107.427 Y119.912 E.48171
M204 S15000
M204 S10000
G1 X107.532 Y120.655 F21000
M204 S5000
G1 F3600
G1 X114.867 Y127.991 E.43011
M204 S15000
M204 S10000
G1 X114 Y127.762 F21000
M204 S5000
G1 F3600
G1 X107.778 Y121.54 E.36482
M204 S15000
;WIPE_START
G1 F16800
G1 X109.862 Y123.624 E-.8
;WIPE_END
M204 S10000
G1 X108.165 Y122.566 F21000
G1 E.8 F4800
M204 S5000
G1 F3600
G1 X112.989 Y127.39 E.28285
M204 S15000
;WIPE_START
G1 F16800
G1 X110.905 Y125.306 E-.8
;WIPE_END
M204 S10000
G1 X111.557 Y126.597 F21000
G1 E.8 F4800
M204 S5000
G1 F3600
G1 X108.932 Y123.972 E.15391
M204 S15000
;LAYER_CHANGE
;Z:0.44
;HEIGHT:0.2
; BEFORE_LAYER_CHANGE 1 @ 0.44mm
G92 E0
;WIPE_START
G1 F16800
G1 X111.016 Y126.056 E-.8
;WIPE_END
G1 Z.44 F21000
; AFTER_LAYER_CHANGE 1 @ 0.44mm
G1 Z.84
M204 S10000
G1 X163.032 Y146.943
G1 Z.44
G1 E.8 F4800
;HEIGHT:0.2
;TYPE:Wipe tower
;WIDTH:0.5
G1 X197.032 Y146.943 E1.2922 F2900
G1 Y160.943 E0.5321
G1 X163.032 E1.2922
G1 Y146.943 E0.5321
G1 X197.032
G1 Y160.943
G1 X196.032
;--------------------
; CP EMPTY GRID START
; layer #2
G1 Y146.943 E0.5321
G1 X191.461
G1 Y160.943 E0.5321
G1 X186.889
G1 Y146.943 E0.5321
G1 X182.318
G1 Y160.943 E0.5321
G1 X177.746
G1 Y146.943 E0.5321
G1 X173.175
G1 Y160.943 E0.5321
G1 X168.603
G1 Y146.943 E0.5321
G1 X164.032
G1 Y160.943 E0.5321
; CP EMPTY GRID END
;------------------






G1 X162.532 Y161.443
G1 Y146.443 E0.5701
G1 X197.532 E1.3302
G1 Y161.443 E0.5701
G1 X162.532 E1.3302
; WIPE_TOWER_END

;WIPE_START
G1 F16800
G1 X165.479 Y161.443 E-.8
;WIPE_END
G1 Z.84 F21000
G1 X126.315 Y116.012
G1 Z.44
G1 E.8 F4800
M204 S5000
;TYPE:Perimeter
;WIDTH:0.45
;HEIGHT:0.2
G1 F8843.479

G1 X126.602 Y117.362 E.04298
G1 X126.698 Y118.74 E.04302
G1 X126.607 Y120.069 E.04148
G1 X126.315 Y121.468 E.0445
G1 X125.843 Y122.765 E.04298
G1 X125.195 Y123.984 E.04299
G1 X124.383 Y125.1 E.04298
G1 X123.403 Y126.112 E.04387
G1 X122.336 Y126.944 E.04213
G1 X121.14 Y127.634 E.043
G1 X119.86 Y128.152 E.043
G1 X118.52 Y128.486 E.04301
G1 X117.147 Y128.63 E.04299
G1 X115.785 Y128.583 E.04244
G1 X114.407 Y128.342 E.04356
G1 X113.095 Y127.915 E.04297
G1 X111.854 Y127.31 E.04299
G1 X110.71 Y126.539 E.04296
G1 X109.644 Y125.571 E.04484
G1 X108.796 Y124.557 E.04116
G1 X108.064 Y123.386 E.043
G1 X107.502 Y122.124 E.04302
G1 X107.121 Y120.792 E.04314
G1 X106.928 Y119.419 E.04318
G1 X106.906 Y118.8 E.01929
G1 X106.928 Y118.058 E.02312
G1 X107.122 Y116.682 E.04327
G1 X107.499 Y115.368 E.04257
G1 X108.064 Y114.093 E.04343
G1 X108.795 Y112.922 E.04299
G1 X109.683 Y111.865 E.04299
G1 X110.683 Y110.962 E.04196
G1 X111.854 Y110.169 E.04404
G1 X113.095 Y109.564 E.04299
G1 X114.408 Y109.137 E.043
G1 X115.767 Y108.897 E.04298
G1 X117.19 Y108.852 E.04434
G1 X118.52 Y108.993 E.04165
G1 X119.86 Y109.327 E.04301
G1 X121.14 Y109.845 E.043
G1 X122.336 Y110.535 E.043
G1 X123.424 Y111.385 E.043
G1 X124.383 Y112.378 E.04299
G1 X125.195 Y113.495 E.043
G1 X125.843 Y114.714 E.04299
G1 X126.294 Y115.955 E.04112

M204 S15000
M204 S10000
G1 X126.693 Y115.906 F21000
;TYPE:External perimeter
;WIDTH:0.42
G1 F7199.971

G1 X126.991 Y117.307 E.04132
G1 X127.091 Y118.74 E.04144
G1 F7154.442
G1 X126.997 Y120.123 E.03999
G1 X126.693 Y121.576 E.04282
G1 F7199.949
G1 X126.202 Y122.925 E.04141
G1 X125.528 Y124.192 E.0414
G1 X124.684 Y125.353 E.0414
G1 F7166.81
G1 X123.666 Y126.404 E.04221
G1 X122.556 Y127.27 E.04061
G1 F7199.976
